client/src/assets/images/icon-task-danger-signs.svg

<svg viewBox="0 0 122 122" xmlns="http://www.w3.org/2000/svg"><g fill="#fff"><path d="m95.17 75.4-25.45-41a11.08 11.08 0 0 0 -8.77-6h-.19-.2a11.08 11.08 0 0 0 -8.77 6l-25.45 41c-2.34 3.78-2.85 7.46-1.34 10.11s4.87 4.16 9.32 4.16h53c4.45 0 7.85-1.52 9.32-4.16s.88-6.33-1.47-10.11zm-.37 9.14c-1.11 2-3.86 3.13-7.57 3.13h-52.95c-3.7 0-6.46-1.14-7.57-3.13s-.62-4.94 1.29-8.09l25.5-41.06a9 9 0 0 1 7.22-5 9 9 0 0 1 7.21 5l25.55 41.06c1.95 3.15 2.43 6.09 1.32 8.09z"/><path d="m60.76 67.07a1.33 1.33 0 0 0 1.33-1.33v-18.17a1.33 1.33 0 0 0 -2.66 0v18.17a1.32 1.32 0 0 0 1.33 1.33z"/><path d="m60.76 71.52a2.12 2.12 0 1 0 2.12 2.12 2.1 2.1 0 0 0 -2.12-2.12z"/></g></svg>

<svg xmlns="http://www.w3.org/2000/svg" viewBox="0 0 122 122"><defs><style>.cls-1{fill:#fff;}</style></defs><title>Week 22_Icons</title><g id="Content"><path class="cls-1" d="M95.17,75.4l-25.45-41a11.08,11.08,0,0,0-8.77-6l-.19,0-.2,0a11.08,11.08,0,0,0-8.77,6l-25.45,41C24,79.18,23.49,82.86,25,85.51s4.87,4.16,9.32,4.16h53c4.45,0,7.85-1.52,9.32-4.16S97.52,79.18,95.17,75.4Zm-.37,9.14c-1.11,2-3.86,3.13-7.57,3.13H34.28c-3.7,0-6.46-1.14-7.57-3.13S26.09,79.6,28,76.45l25.5-41.06a9,9,0,0,1,7.22-5,9,9,0,0,1,7.21,5L93.48,76.45C95.43,79.6,95.91,82.54,94.8,84.54Z"/><path class="cls-1" d="M60.76,67.07a1.33,1.33,0,0,0,1.33-1.33V47.57a1.33,1.33,0,0,0-2.66,0V65.74A1.32,1.32,0,0,0,60.76,67.07Z"/><path class="cls-1" d="M60.76,71.52a2.12,2.12,0,1,0,2.12,2.12A2.1,2.1,0,0,0,60.76,71.52Z"/></g></svg>
